X: 33023
T: Price Of My Pig, The
R: jig
M: 6/8
K: Aminor
|:EAA AGA|B3 GAB|c3 B3|AGE E2 D|
EAA AGA|B3 GAB|c3 B3|AGE A3:|
|:efe ded|c3 B3|c3 B3|AGE E2 D|
EAA AGA|B3 GAB|c3 B3|AGE A3:|

